X: 151
T: Huiqin Future
%%abc-version 2.0
%%abcx-abcm2ps-target-version 5.9.1 (29 Sep 2008)
%%abc-creator hum2abc beta
%%abcx-conversion-date 2013/10/02 07:44:27
%%abc-edited-by Helmut Schaffrath
%%humdrum-veritas 3489592208
%%humdrum-veritas-data 3209230197
%%continueall 1
%%barnumbers 0
L: 1/8
M: 2/4
K: C
G EG2 [I:setbarnb 1]| 
G c c A | 
c C C c | 
G4 | 
G A,C2 | 
E A G D | 
E> A, G, D | 
C4 |]  



